views/expressjs.svg

<svg xmlns="http://www.w3.org/2000/svg" viewBox="0 0 1333.33 773.55" shape-rendering="geometricPrecision" text-rendering="geometricPrecision" image-rendering="optimizeQuality" fill-rule="evenodd" clip-rule="evenodd"><path d="M1333.33 753.49c-48.5 12.33-78.5.54-105.41-39.87L1036.5 448.79l-27.67-36.67L785.29 714.5c-25.54 36.38-52.33 52.2-100 39.33l286.25-384.25-266.5-347.09c45.83-8.91 77.5-4.38 105.62 36.67l198.54 268.13 200-266.67c25.62-36.38 53.17-50.2 99.17-36.8l-103.33 137-140 182.29c-16.67 20.83-14.38 35.09.96 55.2l267.33 355.18zM.34 363.16l23.41-115.17c63.75-227.92 325-322.63 505.17-181.8 105.29 82.83 131.46 200 126.25 331.25H61.67C52.76 633.69 222.8 776.27 439.58 703.53c76.04-25.54 120.83-85.09 143.25-159.58 11.38-37.33 30.2-43.17 65.29-32.5-17.91 93.17-58.33 171-143.75 219.71-127.62 72.91-309.8 49.33-405.62-52C41.66 620.36 18.08 545.87 7.5 466.2c-1.67-13.17-5-25.71-7.5-38.33.22-21.56.34-43.11.34-64.67v-.04zm62.41-15.83h536.33c-3.5-170.83-109.87-292.17-255.25-293.2-159.58-1.25-274.17 117.2-281.09 293.2h.01z" fill-rule="nonzero"/></svg>

<?xml version="1.0" encoding="utf-8"?>
<!-- Generator: Adobe Illustrator 24.1.1, SVG Export Plug-In . SVG Version: 6.00 Build 0)  -->
<svg version="1.1"
	 id="Layer_1" shape-rendering="geometricPrecision" text-rendering="geometricPrecision" image-rendering="optimizeQuality"
	 xmlns="http://www.w3.org/2000/svg" xmlns:xlink="http://www.w3.org/1999/xlink" x="0px" y="0px" viewBox="0 0 1333.3 773.5"
	 style="enable-background:new 0 0 1333.3 773.5;" xml:space="preserve">
<style type="text/css">
	.st0{fill:#D2D2D2;}
</style>
<path class="st0" d="M1333.3,753.5c-48.5,12.3-78.5,0.5-105.4-39.9l-191.4-264.8l-27.7-36.7L785.3,714.5
	c-25.5,36.4-52.3,52.2-100,39.3l286.3-384.3L705,22.5c45.8-8.9,77.5-4.4,105.6,36.7l198.5,268.1l200-266.7
	c25.6-36.4,53.2-50.2,99.2-36.8l-103.3,137l-140,182.3c-16.7,20.8-14.4,35.1,1,55.2L1333.3,753.5z M0.3,363.2L23.8,248
	C87.5,20.1,348.8-74.6,528.9,66.2c105.3,82.8,131.5,200,126.3,331.3H61.7c-8.9,236.3,161.1,378.8,377.9,306.1
	c76-25.5,120.8-85.1,143.2-159.6c11.4-37.3,30.2-43.2,65.3-32.5c-17.9,93.2-58.3,171-143.8,219.7c-127.6,72.9-309.8,49.3-405.6-52
	c-57.1-58.8-80.7-133.3-91.2-213c-1.7-13.2-5-25.7-7.5-38.3C0.2,406.3,0.3,384.8,0.3,363.2L0.3,363.2z M62.8,347.3h536.3
	C595.6,176.5,489.2,55.2,343.8,54.1C184.3,52.9,69.7,171.3,62.8,347.3L62.8,347.3L62.8,347.3z"/>
</svg>
